X: 58
T: Nancy
B: begged borrowed and stolen
M:2/4
L:1/8
R: march
Q: 1/4=100
K:Dmajor
V:1 
"^[A]"(3ABc|:"D"d2D2F2A2|d2fe d2A2|"G"B2d2  gf ed|"A"c2ec A2Bc|
"D"d2D2F2A2|d2fe d2A2|"G"B2g2"A" fe dc | [1"D"d6 (3ABc:|2 "D"d6(fg)||
 |:"D"a3b a2f2|"G"g3a g2e2|"D"f2d2gfed| "A"c2e2A2Bc|"D"d2D2F2A2|d2fe d2A2|
 "G"B2g2"A"fedc|1 "D"d6(fg):|2 "D"d6 (3ABc||
% abcbook-tune_id 62828a3afbcd99d60594f4d9


% abcbook-boost 0
% abcbook-tablature 
% abcbook-transpose 
% abcbook-lastupdated 1652725431088
% abcbook-soundfonts 
% abcbook-repeats 3
% abc-sessionorg_id 3471
% abc-sessionorg_setting 0
% abc-sessionorg_setting_id 3471
% abc-boost 0

